X:824
T:Islay Rant
C:Charlie McKerron
S:Sessions
Z:Nigel Gatherer
M:4/4
L:1/8
K:Ador
AG | EAAG     ABcd | e2 ed    eAAf | g2 gf gABA | GABG cABG |
     EAAG     ABcd | e2 ed    eAAf | g2 gf gABA | GABG A2  :|
eg | a2 ab    aged | eA A/A/A eAef | g2 gf gABA | GABG cABG |
    ^cA A/A/A cADA | eA A/A/A eAfA | g2 gf gABA | GABG A2  :|
<end>
<start>
